icons/Yaru-remix-dark/scalable/categories/emoji-symbols-symbolic.svg

<?xml version="1.0" encoding="UTF-8" standalone="no"?>
<svg
   xmlns:dc="http://purl.org/dc/elements/1.1/"
   xmlns:cc="http://creativecommons.org/ns#"
   xmlns:rdf="http://www.w3.org/1999/02/22-rdf-syntax-ns#"
   xmlns:svg="http://www.w3.org/2000/svg"
   xmlns="http://www.w3.org/2000/svg"
   xmlns:sodipodi="http://sodipodi.sourceforge.net/DTD/sodipodi-0.dtd"
   xmlns:inkscape="http://www.inkscape.org/namespaces/inkscape"
   height="16"
   width="16"
   version="1.1"
   id="svg10"
   sodipodi:docname="emoji-symbols-symbolic.svg"
   inkscape:version="1.0.1 (3bc2e813f5, 2020-09-07)">
  <metadata
     id="metadata16">
    <rdf:RDF>
      <cc:Work
         rdf:about="">
        <dc:format>image/svg+xml</dc:format>
        <dc:type
           rdf:resource="http://purl.org/dc/dcmitype/StillImage" />
        <dc:title />
      </cc:Work>
    </rdf:RDF>
  </metadata>
  <defs
     id="defs14" />
  <sodipodi:namedview
     pagecolor="#ffffff"
     bordercolor="#666666"
     borderopacity="1"
     objecttolerance="10"
     gridtolerance="10"
     guidetolerance="10"
     inkscape:pageopacity="0"
     inkscape:pageshadow="2"
     inkscape:window-width="1920"
     inkscape:window-height="1011"
     id="namedview12"
     showgrid="true"
     inkscape:zoom="26.781249"
     inkscape:cx="-5.2944303"
     inkscape:cy="8.2577873"
     inkscape:window-x="0"
     inkscape:window-y="32"
     inkscape:window-maximized="1"
     inkscape:current-layer="svg10"
     inkscape:document-rotation="0">
    <inkscape:grid
       type="xygrid"
       id="grid855" />
    <inkscape:grid
       type="xygrid"
       id="grid900"
       dotted="true"
       spacingx="0.5"
       spacingy="0.5"
       empspacing="10" />
  </sodipodi:namedview>
  <path
     style="fill:#808080;fill-opacity:1;fill-rule:evenodd;stroke-width:0.75;stroke-linecap:round;stroke-linejoin:round"
     id="path886"
     cx="7.5"
     cy="5.5"
     r="5.5"
     d="" />
  <path
     style="fill:#808080;fill-opacity:1;fill-rule:evenodd;stroke-width:0.75;stroke-linecap:round;stroke-linejoin:round"
     id="path888"
     cx="7.5"
     cy="5.5"
     r="4.5"
     d="" />
  <path
     style="color:#000000;font-style:normal;font-variant:normal;font-weight:normal;font-stretch:normal;font-size:medium;line-height:normal;font-family:sans-serif;font-variant-ligatures:normal;font-variant-position:normal;font-variant-caps:normal;font-variant-numeric:normal;font-variant-alternates:normal;font-variant-east-asian:normal;font-feature-settings:normal;font-variation-settings:normal;text-indent:0;text-align:start;text-decoration:none;text-decoration-line:none;text-decoration-style:solid;text-decoration-color:#000000;letter-spacing:normal;word-spacing:normal;text-transform:none;writing-mode:lr-tb;direction:ltr;text-orientation:mixed;dominant-baseline:auto;baseline-shift:baseline;text-anchor:start;white-space:normal;shape-padding:0;shape-margin:0;inline-size:0;clip-rule:nonzero;display:inline;overflow:visible;visibility:visible;isolation:auto;mix-blend-mode:normal;color-interpolation:sRGB;color-interpolation-filters:linearRGB;solid-color:#000000;solid-opacity:1;vector-effect:none;fill:#808080;fill-opacity:1;fill-rule:nonzero;stroke:none;stroke-width:1px;stroke-linecap:butt;stroke-linejoin:round;stroke-miterlimit:4;stroke-dasharray:none;stroke-dashoffset:0;stroke-opacity:1;color-rendering:auto;image-rendering:auto;shape-rendering:auto;text-rendering:auto;enable-background:accumulate;stop-color:#000000;stop-opacity:1;opacity:1"
     d="M 4.4765625 1 A 0.50005 0.50005 0 0 0 4.1464844 1.1464844 L 1.1464844 4.1464844 A 0.50005 0.50005 0 0 0 1.1464844 4.8535156 L 4.1464844 7.8535156 A 0.50005 0.50005 0 0 0 4.8535156 7.8535156 L 7.8535156 4.8535156 A 0.50005 0.50005 0 0 0 7.8535156 4.1464844 L 4.8535156 1.1464844 A 0.50005 0.50005 0 0 0 4.4765625 1 z M 4.5 2.2070312 L 6.7929688 4.5 L 4.5 6.7929688 L 2.2070312 4.5 L 4.5 2.2070312 z "
     id="path867" />
  <path
     style="color:#000000;font-style:normal;font-variant:normal;font-weight:normal;font-stretch:normal;font-size:medium;line-height:normal;font-family:sans-serif;font-variant-ligatures:normal;font-variant-position:normal;font-variant-caps:normal;font-variant-numeric:normal;font-variant-alternates:normal;font-variant-east-asian:normal;font-feature-settings:normal;font-variation-settings:normal;text-indent:0;text-align:start;text-decoration:none;text-decoration-line:none;text-decoration-style:solid;text-decoration-color:#000000;letter-spacing:normal;word-spacing:normal;text-transform:none;writing-mode:lr-tb;direction:ltr;text-orientation:mixed;dominant-baseline:auto;baseline-shift:baseline;text-anchor:start;white-space:normal;shape-padding:0;shape-margin:0;inline-size:0;clip-rule:nonzero;display:inline;overflow:visible;visibility:visible;isolation:auto;mix-blend-mode:normal;color-interpolation:sRGB;color-interpolation-filters:linearRGB;solid-color:#000000;solid-opacity:1;vector-effect:none;fill:#808080;fill-opacity:1;fill-rule:nonzero;stroke:none;stroke-width:1px;stroke-linecap:butt;stroke-linejoin:round;stroke-miterlimit:4;stroke-dasharray:none;stroke-dashoffset:0;stroke-opacity:1;color-rendering:auto;image-rendering:auto;shape-rendering:auto;text-rendering:auto;enable-background:accumulate;stop-color:#000000;stop-opacity:1;opacity:1"
     d="M 12.017578 2 A 0.50005 0.50005 0 0 0 11.552734 2.2773438 L 9.0527344 7.2773438 A 0.50005 0.50005 0 0 0 9.5 8 L 14.5 8 A 0.50005 0.50005 0 0 0 14.947266 7.2773438 L 12.447266 2.2773438 A 0.50005 0.50005 0 0 0 12.017578 2 z M 12 3.6171875 L 13.691406 7 L 10.308594 7 L 12 3.6171875 z "
     id="path871" />
  <path
     id="path858"
     style="opacity:1;fill:#808080;fill-rule:evenodd;stroke:none;stroke-width:0.75;stroke-linecap:round;stroke-linejoin:round"
     d="M 6.9492188 9 A 3 3 0 0 0 4 12 A 3 3 0 0 0 7 15 A 3 3 0 0 0 10 12 A 3 3 0 0 0 7 9 A 3 3 0 0 0 6.9492188 9 z M 6.9511719 10 A 2 2 0 0 1 7 10 A 2 2 0 0 1 9 12 A 2 2 0 0 1 7 14 A 2 2 0 0 1 5 12 A 2 2 0 0 1 6.9511719 10 z " />
</svg>

<svg xmlns="http://www.w3.org/2000/svg" height="16" width="16">
    <path style="line-height:normal;font-variant-ligatures:normal;font-variant-position:normal;font-variant-caps:normal;font-variant-numeric:normal;font-variant-alternates:normal;font-variant-east-asian:normal;font-feature-settings:normal;font-variation-settings:normal;text-indent:0;text-align:start;text-decoration-line:none;text-decoration-style:solid;text-decoration-color:#000;text-transform:none;text-orientation:mixed;white-space:normal;shape-padding:0;shape-margin:0;inline-size:0;isolation:auto;mix-blend-mode:normal;solid-color:#000;solid-opacity:1" d="M4.477 1a.5.5 0 00-.33.146l-3 3a.5.5 0 000 .708l3 3a.5.5 0 00.707 0l3-3a.5.5 0 000-.708l-3-3A.5.5 0 004.477 1zM4.5 2.207L6.793 4.5 4.5 6.793 2.207 4.5 4.5 2.207zM12.018 2a.5.5 0 00-.465.277l-2.5 5A.5.5 0 009.5 8h5a.5.5 0 00.447-.723l-2.5-5a.5.5 0 00-.43-.277zM12 3.617L13.691 7H10.31L12 3.617z" color="#000" font-weight="400" font-family="sans-serif" overflow="visible" fill="gray"/>
    <path d="M6.95 9A3 3 0 004 12a3 3 0 003 3 3 3 0 003-3 3 3 0 00-3-3 3 3 0 00-.05 0zm.001 1A2 2 0 017 10a2 2 0 012 2 2 2 0 01-2 2 2 2 0 01-2-2 2 2 0 011.951-2z" fill="gray" fill-rule="evenodd"/>
</svg>
